src/assets/duotone/VideoSlash.svg

<svg width="24" height="24" viewBox="0 0 24 24"  xmlns="http://www.w3.org/2000/svg">
<path opacity="0.4" d="M17.65 6.56L4.2 20.01C2.8 19.12 2.25 17.53 2.25 16V8C2.25 4.58 3.58 3.25 7 3.25H13C15.89 3.25 17.29 4.2 17.65 6.56Z" />
<path opacity="0.4" d="M17.75 9.25V16C17.75 16.08 17.74 16.14 17.74 16.21C17.74 16.28 17.73 16.35 17.73 16.42H17.74C17.63 19.53 16.28 20.75 13 20.75H7.00004C6.75004 20.75 6.52004 20.74 6.29004 20.71L17.75 9.25Z" />
<path opacity="0.4" d="M17.73 16.42C17.73 16.35 17.74 16.28 17.74 16.21C17.75 16.28 17.75 16.35 17.74 16.42H17.73Z" />
<path opacity="0.4" d="M17.74 7.57007C17.75 7.64007 17.75 7.72007 17.74 7.79007C17.74 7.72007 17.73 7.65007 17.73 7.58007L17.74 7.57007Z" />
<path d="M22.75 8.37998V15.62C22.75 17.05 22.06 17.62 21.65 17.83C21.46 17.93 21.17 18.04 20.8 18.04C20.37 18.04 19.83 17.9 19.21 17.46L17.74 16.42H17.73C17.73 16.35 17.74 16.28 17.74 16.21C17.74 16.14 17.75 16.08 17.75 16V9.24998L21.02 5.97998C21.29 5.99998 21.5 6.07998 21.65 6.16998C22.06 6.37998 22.75 6.94998 22.75 8.37998Z" />
<path d="M21.7699 2.22988C21.4699 1.92988 20.9799 1.92988 20.6799 2.22988L2.22988 20.6899C1.92988 20.9899 1.92988 21.4799 2.22988 21.7799C2.37988 21.9199 2.56988 21.9999 2.76988 21.9999C2.96988 21.9999 3.15988 21.9199 3.30988 21.7699L21.7699 3.30988C22.0799 3.00988 22.0799 2.52988 21.7699 2.22988Z" />
</svg>

<?xml version="1.0" encoding="UTF-8"?>
<svg width="24" height="24" viewBox="0 0 24 24" xmlns="http://www.w3.org/2000/svg">
 <path d="m17.65 6.56-13.45 13.45c-1.4-0.89-1.95-2.48-1.95-4.01v-8c0-3.42 1.33-4.75 4.75-4.75h6c2.89 0 4.29 0.95 4.65 3.31z" opacity=".4"/>
 <path d="m17.75 9.25v6.75c0 0.08-0.01 0.14-0.01 0.21s-0.01 0.14-0.01 0.21h0.01c-0.11 3.11-1.46 4.33-4.74 4.33h-6c-0.25 0-0.48-0.01-0.71-0.04l11.46-11.46z" opacity=".4"/>
 <path d="m17.73 16.42c0-0.07 0.01-0.14 0.01-0.21 0.01 0.07 0.01 0.14 0 0.21h-0.01z" opacity=".4"/>
 <path d="m17.74 7.5701c0.01 0.07 0.01 0.15 0 0.22 0-0.07-0.01-0.14-0.01-0.21l0.01-0.01z" opacity=".4"/>
 <path d="m22.75 8.38v7.24c0 1.43-0.69 2-1.1 2.21-0.19 0.1-0.48 0.21-0.85 0.21-0.43 0-0.97-0.14-1.59-0.58l-1.47-1.04h-0.01c0-0.07 0.01-0.14 0.01-0.21s0.01-0.13 0.01-0.21v-6.75l3.27-3.27c0.27 0.02 0.48 0.1 0.63 0.19 0.41 0.21 1.1 0.78 1.1 2.21z"/>
 <path d="m21.77 2.2299c-0.3-0.3-0.79-0.3-1.09 0l-18.45 18.46c-0.3 0.3-0.3 0.79 0 1.09 0.15 0.14 0.34 0.22 0.54 0.22s0.39-0.08 0.54-0.23l18.46-18.46c0.31-0.3 0.31-0.78 0-1.08z"/>
</svg>
